!!!OTL: Aue magne Rex coelorum - I
**kern
*staff1
=1-
*clefF4
*k[b-]
1BB-
1D
=2
2F\
2F\
2BB-/
2F\
=3
4F\
4BB-/
2C/
1F
=4
2r
2F\
2D\
2C/
=5
1BB-
4D\
4F\
2G\
1C
=6
!!linebreak:original
2F\
1BB-
2F\
=7
1r
2r
2F\
=8
2.BB-/
4F\
2BB-/
1F
2C/
0F
==
*-
!!title: @{OTL}, @{GTL}, ed. @{ENC}
!!!pag:
!!!GTL: Hymnbook D
!!!EFL: 
!!!YEM: Creative Commons CC/BY/NC/SA 4.0
!!!ENC: Marcin Konik
!!!END: 2015-0m-dd
!!!EED: Marcin Konik
!!!EEV: 
!!!ONB: Encoded in vim by Marcin Konik
!!!CharacterEncoding: utf-8
!!!RDF**kern: l=long note in original notation
!!!RDF**kern: i=editorial accidental
!!muse2ps: z14jc180F
!!!COM: Anonim
!!!CDT: [?]
!!!TXO: Polish
!!!ODT: 
!!!GTL: Hymnbook D
!!!ARL: Opactwo św. Wojciecha, Staniątki 
!!!voices:	1
